brandFactory_export/1.Light/Loop_1Light.svg

<?xml version="1.0" encoding="UTF-8"?>
<svg width="24px" height="24px" viewBox="0 0 24 24" version="1.1" xmlns="http://www.w3.org/2000/svg" xmlns:xlink="http://www.w3.org/1999/xlink">
    <title>1.Light/Loop_1Light</title>
    <g id="Symbols" stroke="none" stroke-width="1" fill="none" fill-rule="evenodd">
        <g id="1.Light/Loop_1Light" fill="#5CB615" fill-rule="nonzero">
            <path d="M12.9277311,15.0201681 C11.5294118,15.2789916 10.2386555,15.4201681 9.06218487,15.4571429 C8.96806723,14.0857143 7.92268908,13.3394958 6.15798319,13.1680672 C5.94285714,13.1478992 5.73781513,13.1378151 5.54285714,13.1378151 C4.45042017,13.1378151 3.65042017,13.4705882 3.18991597,14.1495798 C2.08403361,13.3630252 1.37815126,12.2134454 1.10252101,10.7176471 C0.336134454,6.54957983 3.5394958,3.7697479 10.6218487,2.45882353 C14.1142857,1.81344538 16.897479,1.85042017 18.897479,2.5697479 C20.907563,3.29579832 22.0705882,4.66722689 22.4571429,6.76470588 C23.2201681,10.9327731 20.0134454,13.712605 12.9277311,15.0201681 M6.28907563,17.2521008 C6.1210084,17.2521008 5.94957983,17.2420168 5.76470588,17.2252101 C3.60336134,17.0168067 3.70420168,15.9781513 3.7512605,15.4806723 C3.81848739,14.7781513 4.08067227,14.1260504 5.5394958,14.1260504 C5.70420168,14.1260504 5.8789916,14.1361345 6.0605042,14.1529412 C6.83697479,14.2268908 7.41512605,14.4285714 7.73781513,14.7310924 C7.91596639,14.8957983 8.14117647,15.1983193 8.07394958,15.9008403 C8.01008403,16.6033613 7.74789916,17.2521008 6.28907563,17.2521008 M23.4218487,6.58655462 C22.9747899,4.14621849 21.5630252,2.48235294 19.2268908,1.64201681 C17.0588235,0.858823529 14.1042017,0.811764706 10.4403361,1.48739496 C0.820168067,3.26554622 -0.47394958,7.58487395 0.131092437,10.8957983 C0.460504202,12.6941176 1.32436975,14.0823529 2.69579832,15.0201681 C2.73613445,15.0470588 2.77983193,15.0605042 2.82352941,15.0739496 C2.80336134,15.1747899 2.77983193,15.2722689 2.7697479,15.3831933 C2.60504202,17.1008403 3.68403361,18.0151261 5.67058824,18.2067227 C5.88571429,18.2268908 6.0907563,18.2369748 6.28571429,18.2369748 C6.65546218,18.2369748 6.99159664,18.1932773 7.2907563,18.1193277 C7.55966387,18.5798319 7.81848739,19.2420168 7.60672269,19.897479 C7.38151261,20.5764706 6.68571429,21.1647059 5.53613445,21.6386555 C5.28403361,21.7428571 5.16638655,22.0319328 5.26722689,22.2840336 C5.34453782,22.4722689 5.52941176,22.589916 5.7210084,22.589916 C5.78487395,22.589916 5.8487395,22.5798319 5.9092437,22.5529412 C7.33781513,21.9647059 8.22184874,21.1747899 8.54117647,20.2067227 C8.79327731,19.4369748 8.66218487,18.5764706 8.18487395,17.7159664 C8.57478992,17.4235294 8.84033613,17.0033613 8.97478992,16.4521008 C10.2285714,16.4184874 11.6134454,16.2705882 13.1058824,15.9915966 C22.7327731,14.2134454 24.0302521,9.89411765 23.4218487,6.58655462" id="Loop_1Light"></path>
        </g>
    </g>
</svg>

<svg width="24" height="24" viewBox="0 0 24 24" xmlns="http://www.w3.org/2000/svg"><path d="M12.928 15.02c-1.399.259-2.69.4-3.866.437-.094-1.371-1.14-2.118-2.904-2.289a6.6 6.6 0 00-.615-.03c-1.093 0-1.893.333-2.353 1.012-1.106-.787-1.812-1.937-2.087-3.432-.767-4.168 2.436-6.948 9.519-8.26 3.492-.645 6.275-.608 8.275.112 2.01.726 3.174 2.097 3.56 4.195.763 4.168-2.444 6.948-9.53 8.255M6.29 17.252c-.168 0-.34-.01-.524-.027-2.162-.208-2.06-1.247-2.014-1.744.067-.703.33-1.355 1.788-1.355.165 0 .34.01.522.027.776.074 1.354.276 1.677.578.178.165.403.467.336 1.17-.064.702-.326 1.351-1.785 1.351M23.422 6.587c-.447-2.44-1.859-4.105-4.195-4.945-2.168-.783-5.123-.83-8.787-.155C.82 3.266-.474 7.585.131 10.896c.33 1.798 1.193 3.186 2.565 4.124a.47.47 0 00.128.054c-.02.1-.044.198-.054.31-.165 1.717.914 2.631 2.9 2.823.216.02.42.03.616.03.37 0 .706-.044 1.005-.118.269.46.527 1.123.316 1.778-.225.68-.921 1.268-2.07 1.742a.495.495 0 00.373.914c1.428-.588 2.312-1.378 2.631-2.346.252-.77.121-1.63-.356-2.491.39-.292.655-.713.79-1.264a26.47 26.47 0 004.13-.46c9.628-1.779 10.925-6.098 10.317-9.405" fill="#5CB615" fill-rule="nonzero"/></svg>
